icons/bhi_email.svg

<svg xmlns="http://www.w3.org/2000/svg" viewBox="0 0 512 512" enable-background="new 0 0 512 512"><path fill="#010101" d="M460.7 32h-410.6c-28.2 0-51.3 23.1-51.3 51.3v313.3c0 28.2 23.1 51.3 51.3 51.3h410.5c28.2 0 51.3-23.1 51.3-51.3v-313.3c.1-28.2-23-51.3-51.2-51.3zm0 102.7l-205.3 128.2-205.3-128.2v-51.4l205.3 128.3 205.3-128.3v51.4z"/></svg>

<?xml version="1.0" encoding="utf-8"?>
<!-- Generator: Adobe Illustrator 19.2.0, SVG Export Plug-In . SVG Version: 6.00 Build 0)  -->
<svg version="1.1" id="Layer_1" xmlns="http://www.w3.org/2000/svg" xmlns:xlink="http://www.w3.org/1999/xlink" x="0px" y="0px"
	 viewBox="0 0 512 512" enable-background="new 0 0 512 512" xml:space="preserve">
<g id="mail_1_">
	<path fill="#010101" d="M460.7,32H50.1C21.9,32-1.2,55.1-1.2,83.3v313.3c0,28.2,23.1,51.3,51.3,51.3h410.5
		c28.2,0,51.3-23.1,51.3-51.3V83.3C512,55.1,488.9,32,460.7,32z M460.7,134.7L255.4,262.9L50.1,134.7V83.3l205.3,128.3L460.7,83.3
		L460.7,134.7L460.7,134.7z"/>
</g>
</svg>
